<?xml version="1.0" encoding="UTF-8"?>
<map version="1.10" tiledversion="1.12.2" orientation="orthogonal" renderorder="right-down" width="18" height="15" tilewidth="32" tileheight="32" infinite="0" nextlayerid="2" nextobjectid="1">
 <tileset firstgid="1" source="../assets/tiles/tilesets/dungeon1.tsx"/>
 <layer id="1" name="Tile Layer 1" width="18" height="15">
  <data encoding="csv">
11,2,18,2,2,2,18,2,2,2,18,2,2,2,2,2,2,11,
2,1,3,10,10,10,10,10,3,3,3,2,10,10,10,10,10,18,
2,10,3,10,3,10,3,10,10,10,10,2,10,10,10,19,10,2,
18,10,3,10,3,10,3,3,3,3,3,2,10,10,10,10,10,2,
2,10,10,10,3,10,10,10,10,10,10,2,10,10,10,10,10,18,
11,3,3,3,3,3,3,3,3,10,3,2,2,2,10,2,2,2,
2,10,10,10,10,10,10,10,10,10,10,10,10,10,10,10,10,11,
18,10,10,10,10,10,10,10,10,10,10,10,10,10,10,10,10,2,
2,10,10,10,10,10,10,10,10,10,10,10,10,10,10,10,10,18,
11,10,10,10,10,10,10,10,10,10,10,10,10,10,10,10,10,2,
2,10,10,10,10,10,10,10,10,10,10,10,10,10,10,10,10,2,
18,10,10,10,10,10,10,10,10,10,10,10,10,10,10,10,10,2,
2,10,17,10,10,10,10,10,10,10,10,10,10,10,10,10,10,2,
18,10,10,10,10,10,10,10,10,10,10,10,10,10,10,10,10,18,
2,2,2,11,2,11,2,11,2,9,2,11,2,2,18,2,2,11
</data>
 </layer>
</map>
