<?xml version="1.0" encoding="UTF-8"?>
<map version="1.10" tiledversion="1.12.2" orientation="orthogonal" renderorder="right-down" width="18" height="15" tilewidth="32" tileheight="32" infinite="0" nextlayerid="12" nextobjectid="16">
 <tileset firstgid="1" source="../assets/tiles/tilesets/dungeon1.tsx"/>
 <tileset firstgid="65" source="../assets/tiles/tilesets/dungeon1.tsx"/>
 <layer id="1" name="tiles" width="18" height="15">
  <data encoding="csv">
2,2,18,2,2,11,11,2,9,2,11,2,2,2,18,2,18,11,
2,1,10,10,10,3,2,3,10,3,10,10,10,1,2,3,1,2,
11,10,10,3,10,3,2,3,10,10,10,3,10,10,2,3,3,2,
2,3,3,3,10,3,2,3,3,3,3,3,3,10,11,3,3,18,
18,3,10,10,10,3,2,10,10,10,10,10,3,10,11,3,3,2,
2,3,10,3,3,3,10,10,1,10,3,10,3,10,2,3,3,11,
2,3,10,10,10,10,10,10,10,10,3,10,10,10,2,2,10,2,
11,3,3,3,3,3,3,3,10,3,3,3,3,10,10,10,10,2,
2,10,10,10,3,10,1,3,10,3,10,10,10,10,10,3,3,18,
11,10,3,10,10,10,3,3,10,3,10,3,3,3,3,3,10,9,
2,10,3,3,3,3,3,2,10,3,10,10,10,10,10,10,10,2,
2,10,10,10,10,10,10,10,10,3,3,3,3,3,3,3,3,11,
18,3,3,3,3,3,10,3,10,10,3,10,10,10,3,10,1,18,
2,1,10,10,10,10,10,3,3,10,10,10,3,10,10,10,3,11,
2,2,2,11,2,2,2,2,2,2,2,11,2,2,2,2,2,2
</data>
 </layer>
 <layer id="10" name="collision" width="18" height="15" visible="0">
  <data encoding="csv">
17,17,17,17,17,17,17,17,17,17,17,17,17,17,17,17,17,17,
17,0,0,0,0,0,17,0,0,0,0,0,0,0,17,0,0,17,
17,0,0,0,0,0,17,0,0,0,0,0,0,0,17,0,0,17,
17,0,0,0,0,0,17,0,0,0,0,0,0,0,17,0,0,17,
17,0,0,0,0,0,17,0,0,0,0,0,0,0,17,0,0,17,
17,0,0,0,0,0,0,0,0,0,0,0,0,0,17,0,0,17,
17,0,0,0,0,0,0,0,0,0,0,0,0,0,17,17,0,17,
17,0,0,0,0,0,0,0,0,0,0,0,0,0,0,0,0,17,
17,0,0,0,0,0,0,0,0,0,0,0,0,0,0,0,0,17,
17,0,0,0,0,0,0,0,0,0,0,0,0,0,0,0,0,0,
17,0,0,0,0,0,0,17,0,0,0,0,0,0,0,0,0,17,
17,0,0,0,0,0,0,0,0,0,0,0,0,0,0,0,0,17,
17,0,0,0,0,0,0,0,0,0,0,0,0,0,0,0,0,17,
17,0,0,0,0,0,0,0,0,0,0,0,0,0,0,0,0,17,
17,17,17,17,17,17,17,17,17,17,17,17,17,17,17,17,17,17
</data>
 </layer>
 <objectgroup id="2" name="objects">
  <object id="5" name="chest1" x="48" y="58">
   <point/>
  </object>
  <object id="6" name="chest2" x="272.138" y="189.35">
   <point/>
  </object>
  <object id="7" name="chest3" x="205.734" y="279.79">
   <point/>
  </object>
  <object id="8" name="chest4" x="47.27" y="444.083">
   <point/>
  </object>
  <object id="9" name="chest5" x="528.328" y="409.578">
   <point/>
  </object>
  <object id="12" name="door" x="562.891" y="316.081">
   <point/>
  </object>
  <object id="13" name="fakeChest1" x="530.293" y="57.0458">
   <point/>
  </object>
  <object id="14" name="fakeChest2" x="432.501" y="55.8816">
   <point/>
  </object>
  <object id="15" name="playerSpawn" x="271.259" y="54.1353">
   <point/>
  </object>
 </objectgroup>
 <layer id="11" name="spikes" width="18" height="15" visible="0">
  <data encoding="csv">
0,0,0,0,0,0,0,0,0,0,0,0,0,0,0,0,0,0,
0,0,0,0,0,69,0,69,0,69,0,0,0,0,0,69,0,0,
0,0,0,69,0,69,0,69,0,0,0,69,0,0,0,69,69,0,
0,69,69,69,0,69,0,69,69,69,69,69,69,0,0,69,69,0,
0,69,0,0,0,69,0,0,0,0,0,0,69,0,0,69,69,0,
0,69,0,69,69,69,0,0,0,0,69,0,69,0,0,69,69,0,
0,69,0,0,0,0,0,0,0,0,69,0,0,0,0,0,0,0,
0,69,69,69,69,69,69,69,0,69,69,69,69,0,0,0,0,0,
0,0,0,0,69,0,0,69,0,69,0,0,0,0,0,69,69,0,
0,0,69,0,0,0,69,69,0,69,0,69,69,69,69,69,0,0,
0,0,69,69,69,69,69,0,0,69,0,0,0,0,0,0,0,0,
0,0,0,0,0,0,0,0,0,69,69,69,69,69,69,69,69,0,
0,69,69,69,69,69,0,69,0,0,69,0,0,0,69,0,0,0,
0,0,0,0,0,0,0,69,69,0,0,0,69,0,0,0,69,0,
0,0,0,0,0,0,0,0,0,0,0,0,0,0,0,0,0,0
</data>
 </layer>
</map>
