<?xml version="1.0" encoding="UTF-8"?>
<map version="1.10" tiledversion="1.12.2" orientation="orthogonal" renderorder="right-down" width="18" height="15" tilewidth="32" tileheight="32" infinite="0" nextlayerid="13" nextobjectid="20">
 <tileset firstgid="1" source="../assets/tiles/tilesets/dungeon1.tsx"/>
 <tileset firstgid="65" source="../assets/tiles/tilesets/dungeon1.tsx"/>
 <layer id="1" name="tiles" width="18" height="15">
  <data encoding="csv">
2,2,68,2,2,11,68,2,66,77,11,2,68,2,18,68,84,11,
2,74,74,74,74,74,74,74,74,74,74,74,74,74,74,74,74,2,
84,74,67,67,67,67,67,67,74,67,74,67,67,67,74,67,74,2,
2,74,67,74,74,74,74,74,74,67,74,67,65,67,74,67,74,18,
18,74,67,74,67,67,67,67,67,67,74,67,74,67,74,67,74,2,
2,74,67,65,67,74,74,74,65,67,74,74,74,67,74,67,74,11,
77,74,67,67,67,74,67,67,67,67,67,67,67,67,74,67,74,77,
11,74,74,74,74,74,74,74,74,74,74,74,65,67,74,67,74,84,
2,67,67,67,67,67,67,67,67,67,67,67,67,67,74,67,74,18,
73,74,74,74,74,74,74,74,74,74,74,74,74,74,74,67,65,66,
2,74,67,74,67,67,67,67,67,67,67,67,67,67,67,67,67,2,
2,74,67,74,74,74,74,74,74,74,74,74,74,74,74,74,67,11,
18,74,67,67,67,67,67,67,67,67,67,67,67,67,67,74,67,18,
2,74,74,74,74,74,74,74,74,74,74,74,74,74,67,65,67,11,
2,84,2,11,68,2,2,2,2,77,2,11,2,73,2,2,2,2
</data>
 </layer>
 <layer id="12" name="spikes" width="18" height="15" visible="0">
  <data encoding="csv">
0,0,0,0,0,0,0,0,0,0,0,0,0,0,0,0,0,0,
0,0,0,0,0,0,0,0,0,0,0,0,0,0,0,0,0,0,
0,0,81,81,81,81,81,81,0,81,0,81,81,81,0,81,0,0,
0,0,81,0,0,0,0,0,0,81,0,81,0,81,0,81,0,0,
0,0,81,0,81,81,81,81,81,81,0,81,0,81,0,81,0,0,
0,0,81,0,81,0,0,0,0,81,0,0,0,81,0,81,0,0,
0,0,81,81,81,0,81,81,81,81,81,81,81,81,0,81,0,0,
0,0,0,0,0,0,0,0,0,0,0,0,0,81,0,81,0,0,
0,81,81,81,81,81,81,81,81,81,81,81,81,81,0,81,0,0,
0,0,0,0,0,0,0,0,0,0,0,0,0,0,0,81,0,0,
0,0,81,0,81,81,81,81,81,81,81,81,81,81,81,81,81,0,
0,0,81,0,0,0,0,0,0,0,0,0,0,0,0,0,81,0,
0,0,81,81,81,81,81,81,81,81,81,81,81,81,81,0,81,0,
0,0,0,0,0,0,0,0,0,0,0,0,0,0,81,0,81,0,
0,0,0,0,0,0,0,0,0,0,0,0,0,0,0,0,0,0
</data>
 </layer>
 <objectgroup id="2" name="objects">
  <object id="5" name="chest1" x="112.031" y="188.973">
   <point/>
  </object>
  <object id="6" name="chest2" x="272.138" y="189.35">
   <point/>
  </object>
  <object id="7" name="chest3" x="399.573" y="124.369">
   <point/>
  </object>
  <object id="8" name="chest4" x="496.652" y="445.247">
   <point/>
  </object>
  <object id="9" name="chest5" x="398.52" y="249.5">
   <point/>
  </object>
  <object id="12" name="door" x="431.336" y="475.577">
   <point/>
  </object>
  <object id="13" name="fakeChest1" x="526.8" y="315.498">
   <point/>
  </object>
  <object id="15" name="playerSpawn" x="47.7324" y="316.08">
   <point/>
  </object>
  <object id="16" name="spawnEnemy1" x="47.1501" y="86.1509">
   <point/>
  </object>
  <object id="17" name="spawnEnemy2" x="45.9859" y="442.396">
   <point/>
  </object>
  <object id="18" name="spawnEnemy3" x="529.129" y="57.6279">
   <point/>
  </object>
  <object id="19" name="spawnEnemy4" x="526.219" y="244.482">
   <point/>
  </object>
 </objectgroup>
 <layer id="11" name="collision" width="18" height="15" visible="0">
  <data encoding="csv">
76,76,76,76,76,76,76,76,76,76,76,76,76,76,76,76,76,76,
76,0,0,0,0,0,0,0,0,0,0,0,0,0,0,0,0,76,
76,0,0,0,0,0,0,0,0,0,0,0,0,0,0,0,0,76,
76,0,0,0,0,0,0,0,0,0,0,0,0,0,0,0,0,76,
76,0,0,0,0,0,0,0,0,0,0,0,0,0,0,0,0,76,
76,0,0,0,0,0,0,0,0,0,0,0,0,0,0,0,0,76,
76,0,0,0,0,0,0,0,0,0,0,0,0,0,0,0,0,76,
76,0,0,0,0,0,0,0,0,0,0,0,0,0,0,0,0,76,
76,0,0,0,0,0,0,0,0,0,0,0,0,0,0,0,0,76,
76,0,0,0,0,0,0,0,0,0,0,0,0,0,0,0,0,76,
76,0,0,0,0,0,0,0,0,0,0,0,0,0,0,0,0,76,
76,0,0,0,0,0,0,0,0,0,0,0,0,0,0,0,0,76,
76,0,0,0,0,0,0,0,0,0,0,0,0,0,0,0,0,76,
76,0,0,0,0,0,0,0,0,0,0,0,0,0,0,0,0,76,
76,76,76,76,76,76,76,76,76,76,76,76,76,0,76,76,76,76
</data>
 </layer>
</map>
